X:1
T:Dans sa maison un grand cerf...
C:... regardait par le fentre, fichier abc : Bernard Loffet
L:1/8
Q:220
M:2/4
K:G
 [DG,,][GG,] [GG,,][GG,] | [GG,,][FD,] [AD,,]D, | [DD,,][AD,] [AD,,][AD,] | [AD,,][GG,] [BG,,][BG,] | \
 [DG,,][GG,] [GG,,][GG,] | [GG,,][FD,] [AD,,]D, | [DD,,][DD,] [ED,,][FD,] | [GG,,]G, G,,G, | \
 [dG,,]G, [dG,,]G, | [dC,,][cC,] [eC,,]C, | [cD,,][cD,] [cD,,][cD,] | [cG,,][BG,] [dG,,]G, | \
 [BE,,][BE,] [BE,,][BE,] | [BA,,][AA,] [cA,,]A, | [DD,,][DD,] [ED,,][FD,] | [GG,,]G, G,,G, | \
W:Created with TablEdit http://www.tabledit.com/ by Bernard Loffet
